src/lib/packages/icons/src/assets/line/blogger.svg

<svg width="24" height="24" viewBox="0 0 24 24" fill="none" xmlns="http://www.w3.org/2000/svg">
<path d="M19.82 9.20978H18.73C18.56 9.20978 18.39 9.03977 18.39 8.86977C18.39 5.27977 15.47 2.25977 12 2.25977H8.64001C5.12001 2.25977 2.25 5.11977 2.25 8.64977V15.3798C2.25 18.8998 5.11001 21.7698 8.64001 21.7698H15.37C18.89 21.7698 21.76 18.9098 21.76 15.3798V11.1498C21.76 10.0698 20.91 9.21977 19.83 9.21977L19.82 9.20978ZM20.25 15.3698C20.25 18.0598 18.06 20.2598 15.36 20.2598H8.63C5.94 20.2598 3.73999 18.0698 3.73999 15.3698V8.63977C3.73999 5.94977 5.93 3.74977 8.63 3.74977H11.99C14.64 3.74977 16.88 6.08977 16.88 8.85977C16.88 9.85977 17.72 10.6998 18.72 10.6998H19.81C20.07 10.6998 20.24 10.8698 20.24 11.1298V15.3598L20.25 15.3698ZM7.45999 8.90977C7.45999 8.31977 7.95999 7.81978 8.54999 7.81978H12.59C13.18 7.81978 13.68 8.31977 13.68 8.90977C13.68 9.49977 13.18 9.99977 12.59 9.99977H8.54999C7.95999 9.99977 7.45999 9.49977 7.45999 8.90977ZM16.46 15.4998C16.46 16.0898 15.96 16.5898 15.37 16.5898H8.56C7.97 16.5898 7.47 16.0898 7.47 15.4998C7.47 14.9098 7.97 14.4098 8.56 14.4098H15.37C15.96 14.4098 16.46 14.9098 16.46 15.4998Z" fill="currentColor"/>
</svg>

<svg xmlns="http://www.w3.org/2000/svg" width="24" height="24" fill="none"><path fill="currentColor" d="M19.82 9.21h-1.09c-.17 0-.34-.17-.34-.34 0-3.59-2.92-6.61-6.39-6.61H8.64c-3.52 0-6.39 2.86-6.39 6.39v6.73c0 3.52 2.86 6.39 6.39 6.39h6.73c3.52 0 6.39-2.86 6.39-6.39v-4.23c0-1.08-.85-1.93-1.93-1.93l-.01-.01Zm.43 6.16c0 2.69-2.19 4.89-4.89 4.89H8.63c-2.69 0-4.89-2.19-4.89-4.89V8.64c0-2.69 2.19-4.89 4.89-4.89h3.36c2.65 0 4.89 2.34 4.89 5.11 0 1 .84 1.84 1.84 1.84h1.09c.26 0 .43.17.43.43v4.23l.01.01ZM7.46 8.91c0-.59.5-1.09 1.09-1.09h4.04c.59 0 1.09.5 1.09 1.09 0 .59-.5 1.09-1.09 1.09H8.55c-.59 0-1.09-.5-1.09-1.09Zm9 6.59c0 .59-.5 1.09-1.09 1.09H8.56c-.59 0-1.09-.5-1.09-1.09 0-.59.5-1.09 1.09-1.09h6.81c.59 0 1.09.5 1.09 1.09Z"/></svg>
